src/epub/images/titlepage.svg

<?xml version="1.0" encoding="utf-8"?>
<svg xmlns="http://www.w3.org/2000/svg" xmlns:svg="http://www.w3.org/2000/svg" version="1.1" viewBox="0 0 1400 700">
	<title>The titlepage for the Standard Ebooks edition of The Cosmic Computer, by H. Beam Piper</title>
	<g>
		<path d="m 605.10526,68.245613 18.33918,0 0,61.754387 17.59065,0 0,-61.754387 18.33918,0 0,-15.438597 -54.26901,0 0,15.438597 z"/>
		<path d="m 688.29971,99.029239 24.88889,0 0,30.970761 17.59064,0 0,-77.192984 -17.59064,0 0,30.783626 -24.88889,0 0,-30.783626 -17.59065,0 0,77.192984 17.59065,0 0,-30.970761 z"/>
		<path d="m 791.14474,52.807016 -44.16374,0 0,77.192984 44.16374,0 0,-15.4386 -26.5731,0 0,-15.532161 25.45029,0 0,-15.438597 -25.45029,0 0,-15.345029 26.5731,0 0,-15.438597 z"/>
	</g>
	<g>
		<path d="m 227.40643,214.09357 c -17.68422,0 -25.4503,-12.35088 -25.4503,-22.73685 0,-10.29239 7.76608,-22.64327 25.4503,-22.64327 8.98245,0 15.15789,4.77193 15.15789,4.77193 l 7.48538,-14.97076 c 0,0 -8.60819,-7.11111 -25.35673,-7.11111 -21.89473,0 -41.82456,17.96491 -41.82456,40.14035 0,22.08187 20.02339,39.85965 41.82456,39.85965 16.74854,0 25.35673,-7.11111 25.35673,-7.11111 l -7.48538,-14.97076 c 0,0 -6.17544,4.77193 -15.15789,4.77193 z"/>
		<path d="m 258.40935,191.35672 c 0,22.54971 16.09357,40.04679 38.92398,40.04679 22.17544,0 38.83041,-17.49708 38.83041,-40.04679 0,-22.5497 -17.40351,-39.95321 -38.83041,-39.95321 -21.23977,0 -38.92398,17.40351 -38.92398,39.95321 z m 18.99415,0 c 0,-11.50877 6.36258,-23.01754 19.92983,-23.01754 13.66082,0 19.83626,11.50877 19.83626,23.01754 0,11.50878 -5.80117,23.01755 -19.83626,23.01755 -14.40936,0 -19.92983,-11.50877 -19.92983,-23.01755 z"/>
		<path d="m 377.36988,151.40351 c -12.44445,0 -25.16959,9.16959 -25.16959,23.57895 0,8.04678 5.4269,15.25146 14.69006,19.83625 9.16959,4.5848 17.4035,7.11111 17.4035,12.72515 0,7.20468 -7.29824,7.57895 -11.1345,7.57895 -8.60819,0 -18.90058,-8.70176 -18.90058,-8.70176 l -8.79533,14.78363 c 0,0 10.94737,10.19883 29.00585,10.19883 15.06433,0 29.09942,-6.45614 29.09942,-24.88889 0,-10.10526 -9.45029,-17.40351 -18.05848,-21.05263 -8.79532,-3.74269 -16.09357,-6.83041 -16.09357,-11.13451 0,-4.21052 3.18129,-6.92397 9.16959,-6.92397 7.95322,0 15.62573,5.33333 15.62573,5.33333 l 7.11111,-14.03509 c 0,0 -9.91812,-7.29824 -23.95321,-7.29824 z"/>
		<path d="m 480.60379,230 17.59065,0 -6.92398,-77.19298 -18.71345,0 -17.12281,44.53801 -17.12281,-44.53801 -18.71345,0 -6.92397,77.19298 17.59064,0 3.64912,-45.75439 0.46784,0 15.81287,45.28655 10.47953,0 15.81286,-45.28655 0.46784,0 L 480.60379,230 Z"/>
		<path d="m 527.83187,152.80702 -17.59064,0 0,77.19298 17.59064,0 0,-77.19298 z"/>
		<path d="m 582.26754,214.09357 c -17.68421,0 -25.45029,-12.35088 -25.45029,-22.73685 0,-10.29239 7.76608,-22.64327 25.45029,-22.64327 8.98246,0 15.15789,4.77193 15.15789,4.77193 l 7.48538,-14.97076 c 0,0 -8.60818,-7.11111 -25.35672,-7.11111 -21.89474,0 -41.82456,17.96491 -41.82456,40.14035 0,22.08187 20.02339,39.85965 41.82456,39.85965 16.74854,0 25.35672,-7.11111 25.35672,-7.11111 l -7.48538,-14.97076 c 0,0 -6.17543,4.77193 -15.15789,4.77193 z"/>
		<path d="m 685.46929,214.09357 c -17.68421,0 -25.45029,-12.35088 -25.45029,-22.73685 0,-10.29239 7.76608,-22.64327 25.45029,-22.64327 8.98246,0 15.1579,4.77193 15.1579,4.77193 l 7.48538,-14.97076 c 0,0 -8.60819,-7.11111 -25.35673,-7.11111 -21.89474,0 -41.82456,17.96491 -41.82456,40.14035 0,22.08187 20.02339,39.85965 41.82456,39.85965 16.74854,0 25.35673,-7.11111 25.35673,-7.11111 l -7.48538,-14.97076 c 0,0 -6.17544,4.77193 -15.1579,4.77193 z"/>
		<path d="m 716.47223,191.35672 c 0,22.54971 16.09357,40.04679 38.92398,40.04679 22.17544,0 38.83041,-17.49708 38.83041,-40.04679 0,-22.5497 -17.40351,-39.95321 -38.83041,-39.95321 -21.23977,0 -38.92398,17.40351 -38.92398,39.95321 z m 18.99416,0 c 0,-11.50877 6.36257,-23.01754 19.92982,-23.01754 13.66082,0 19.83626,11.50877 19.83626,23.01754 0,11.50878 -5.80117,23.01755 -19.83626,23.01755 -14.40936,0 -19.92982,-11.50877 -19.92982,-23.01755 z"/>
		<path d="m 870.80117,230 17.59064,0 -6.92398,-77.19298 -18.71345,0 -17.12281,44.53801 -17.1228,-44.53801 -18.71345,0 -6.92398,77.19298 17.59064,0 3.64913,-45.75439 0.46783,0 15.81287,45.28655 10.47953,0 15.81287,-45.28655 0.46783,0 L 870.80117,230 Z"/>
		<path d="m 900.43862,152.80702 0,77.19298 17.59064,0 0,-28.63158 10.5731,0 c 15.06433,0 26.38596,-8.88889 26.38596,-24.79532 0,-16 -11.32163,-23.76608 -26.38596,-23.76608 l -28.16374,0 z m 17.59064,34.52631 0,-20.49123 4.95906,0 c 6.92398,0 13.47369,2.33919 13.47369,10.2924 0,7.85965 -6.54971,10.19883 -13.47369,10.19883 l -4.95906,0 z"/>
		<path d="m 1027.0775,152.80702 -17.5906,0 0,44.63158 c 0,12.91228 -3.9299,16.65497 -12.53804,16.65497 -8.60819,0 -12.53801,-3.74269 -12.53801,-16.65497 l 0,-44.63158 -17.59065,0 0,49.77777 c 0,19.08772 10.47954,28.81872 30.12866,28.81872 19.64914,0 30.12864,-9.731 30.12864,-28.81872 l 0,-49.77777 z"/>
		<path d="m 1032.9489,168.24561 18.3391,0 0,61.75439 17.5907,0 0,-61.75439 18.3392,0 0,-15.43859 -54.269,0 0,15.43859 z"/>
		<path d="m 1142.7164,152.80702 -44.1638,0 0,77.19298 44.1638,0 0,-15.4386 -26.5731,0 0,-15.53216 25.4503,0 0,-15.4386 -25.4503,0 0,-15.34503 26.5731,0 0,-15.43859 z"/>
		<path d="m 1157.8289,152.80702 0,77.19298 17.5907,0 0,-30.50292 23.5789,30.50292 22.3626,0 -26.5731,-31.90643 c 9.4503,-2.99416 15.8129,-10.76024 15.8129,-22.36258 0,-15.15789 -10.8538,-22.92397 -25.1696,-22.92397 l -27.6024,0 z m 17.5907,34.24561 0,-20.21053 2.0585,0 c 6.6432,0 14.5965,0.46784 14.5965,10.10527 0,9.63742 -7.9533,10.10526 -14.5965,10.10526 l -2.0585,0 z"/>
	</g>
	<g/>
	<g>
		<path d="m 421.57292,466.77193 18.66667,0 0,23.22807 13.19298,0 0,-57.89474 -13.19298,0 0,23.08772 -18.66667,0 0,-23.08772 -13.19298,0 0,57.89474 13.19298,0 0,-23.22807 z"/>
		<path d="m 474.83388,474.98246 c -4.42105,0 -8,3.57894 -8,8.07017 0,4.42105 3.57895,8 8,8 4.49123,0 8.07018,-3.57895 8.07018,-8 0,-4.49123 -3.57895,-8.07017 -8.07018,-8.07017 z"/>
		<path d="m 520.55647,432.10526 0,57.89474 21.96491,0 c 12,0 18.94737,-6.59649 18.94737,-16.14035 0,-9.33333 -5.12281,-13.33333 -12.35088,-14.59649 4.91228,-2.52632 7.22807,-7.08772 7.22807,-12.42105 0,-11.01755 -7.85965,-14.73685 -17.82456,-14.73685 l -17.96491,0 z m 13.19298,22.66667 0,-12.49123 1.05263,0 c 5.75439,0 8.77193,1.75439 8.77193,5.89474 0,4.8421 -3.08772,6.59649 -8.77193,6.59649 l -1.05263,0 z m 0,25.05263 0,-13.68421 4.14035,0 c 6.24561,0 9.68421,1.89474 9.68421,7.22807 0,4.5614 -3.4386,6.45614 -9.68421,6.45614 l -4.14035,0 z"/>
		<path d="m 605.41722,432.10526 -33.12281,0 0,57.89474 33.12281,0 0,-11.57895 -19.92983,0 0,-11.64912 19.08772,0 0,-11.57895 -19.08772,0 0,-11.50877 19.92983,0 0,-11.57895 z"/>
		<path d="m 647.81634,432.10526 -12.21052,0 L 612.2374,490 l 14.17543,0 4.28071,-11.57895 22.03508,0 4.28071,11.57895 14.17543,0 -23.36842,-57.89474 z m 0.42106,34.73685 -13.05264,0 L 641.6409,450 l 0.14036,0 6.45614,16.84211 z"/>
		<path d="m 726.23409,490 13.19298,0 -5.19298,-57.89474 -14.03509,0 -12.8421,33.40351 -12.84211,-33.40351 -14.03508,0 -5.19299,57.89474 13.19299,0 2.73684,-34.31579 0.35088,0 11.85964,33.96491 7.85965,0 11.85965,-33.96491 0.35088,0 L 726.23409,490 Z"/>
		<path d="m 773.90075,432.10526 0,57.89474 13.19298,0 0,-21.47368 7.92983,0 c 11.29824,0 19.78947,-6.66667 19.78947,-18.5965 0,-11.99999 -8.49123,-17.82456 -19.78947,-17.82456 l -21.12281,0 z M 787.09373,458 l 0,-15.36842 3.7193,0 c 5.19298,0 10.10526,1.75439 10.10526,7.7193 0,5.89473 -4.91228,7.64912 -10.10526,7.64912 l -3.7193,0 z"/>
		<path d="m 838.83168,432.10526 -13.19298,0 0,57.89474 13.19298,0 0,-57.89474 z"/>
		<path d="m 852.2944,432.10526 0,57.89474 13.19298,0 0,-21.47368 7.92982,0 c 11.29825,0 19.78948,-6.66667 19.78948,-18.5965 0,-11.99999 -8.49123,-17.82456 -19.78948,-17.82456 l -21.1228,0 z M 865.48738,458 l 0,-15.36842 3.7193,0 c 5.19298,0 10.10526,1.75439 10.10526,7.7193 0,5.89473 -4.91228,7.64912 -10.10526,7.64912 l -3.7193,0 z"/>
		<path d="m 937.15515,432.10526 -33.12281,0 0,57.89474 33.12281,0 0,-11.57895 -19.92983,0 0,-11.64912 19.08772,0 0,-11.57895 -19.08772,0 0,-11.50877 19.92983,0 0,-11.57895 z"/>
		<path d="m 949.73956,432.10526 0,57.89474 13.19298,0 0,-22.87719 17.68421,22.87719 16.77193,0 -19.92983,-23.92982 c 7.08772,-2.24562 11.85965,-8.07018 11.85965,-16.77193 0,-11.36842 -8.14035,-17.19299 -18.87719,-17.19299 l -20.70175,0 z m 13.19298,25.68421 0,-15.15789 1.54386,0 c 4.98245,0 10.94737,0.35088 10.94737,7.57895 0,7.22807 -5.96492,7.57894 -10.94737,7.57894 l -1.54386,0 z"/>
	</g>
	<g/>
</svg>

<?xml version="1.0" encoding="utf-8"?>
<svg xmlns="http://www.w3.org/2000/svg" xmlns:svg="http://www.w3.org/2000/svg" version="1.1" viewBox="0 0 1400 700">
	<title>The titlepage for the Standard Ebooks edition of The Cosmic Computer, by H. Beam Piper</title>
	<g aria-label="THE">
		<path d="m 605.10526,68.245613 h 18.33918 V 130 h 17.59065 V 68.245613 h 18.33918 V 52.807016 h -54.26901 z"/>
		<path d="M 688.29971,99.029239 H 713.1886 V 130 h 17.59064 V 52.807016 H 713.1886 V 83.590642 H 688.29971 V 52.807016 H 670.70906 V 130 h 17.59065 z"/>
		<path d="M 791.14474,52.807016 H 746.981 V 130 h 44.16374 v -15.4386 h -26.5731 V 99.029239 h 25.45029 V 83.590642 H 764.57164 V 68.245613 h 26.5731 z"/>
	</g>
	<g aria-label="COSMIC COMPUTER">
		<path d="m 227.40643,214.09357 c -17.68422,0 -25.4503,-12.35088 -25.4503,-22.73685 0,-10.29239 7.76608,-22.64327 25.4503,-22.64327 8.98245,0 15.15789,4.77193 15.15789,4.77193 l 7.48538,-14.97076 c 0,0 -8.60819,-7.11111 -25.35673,-7.11111 -21.89473,0 -41.82456,17.96491 -41.82456,40.14035 0,22.08187 20.02339,39.85965 41.82456,39.85965 16.74854,0 25.35673,-7.11111 25.35673,-7.11111 l -7.48538,-14.97076 c 0,0 -6.17544,4.77193 -15.15789,4.77193 z"/>
		<path d="m 258.40935,191.35672 c 0,22.54971 16.09357,40.04679 38.92398,40.04679 22.17544,0 38.83041,-17.49708 38.83041,-40.04679 0,-22.5497 -17.40351,-39.95321 -38.83041,-39.95321 -21.23977,0 -38.92398,17.40351 -38.92398,39.95321 z m 18.99415,0 c 0,-11.50877 6.36258,-23.01754 19.92983,-23.01754 13.66082,0 19.83626,11.50877 19.83626,23.01754 0,11.50878 -5.80117,23.01755 -19.83626,23.01755 -14.40936,0 -19.92983,-11.50877 -19.92983,-23.01755 z"/>
		<path d="m 377.36988,151.40351 c -12.44445,0 -25.16959,9.16959 -25.16959,23.57895 0,8.04678 5.4269,15.25146 14.69006,19.83625 9.16959,4.5848 17.4035,7.11111 17.4035,12.72515 0,7.20468 -7.29824,7.57895 -11.1345,7.57895 -8.60819,0 -18.90058,-8.70176 -18.90058,-8.70176 l -8.79533,14.78363 c 0,0 10.94737,10.19883 29.00585,10.19883 15.06433,0 29.09942,-6.45614 29.09942,-24.88889 0,-10.10526 -9.45029,-17.40351 -18.05848,-21.05263 -8.79532,-3.74269 -16.09357,-6.83041 -16.09357,-11.13451 0,-4.21052 3.18129,-6.92397 9.16959,-6.92397 7.95322,0 15.62573,5.33333 15.62573,5.33333 l 7.11111,-14.03509 c 0,0 -9.91812,-7.29824 -23.95321,-7.29824 z"/>
		<path d="m 480.60379,230 h 17.59065 l -6.92398,-77.19298 H 472.55701 L 455.4342,197.34503 438.31139,152.80702 H 419.59794 L 412.67397,230 h 17.59064 l 3.64912,-45.75439 h 0.46784 l 15.81287,45.28655 h 10.47953 l 15.81286,-45.28655 h 0.46784 z"/>
		<path d="M 527.83187,152.80702 H 510.24123 V 230 h 17.59064 z"/>
		<path d="m 582.26754,214.09357 c -17.68421,0 -25.45029,-12.35088 -25.45029,-22.73685 0,-10.29239 7.76608,-22.64327 25.45029,-22.64327 8.98246,0 15.15789,4.77193 15.15789,4.77193 l 7.48538,-14.97076 c 0,0 -8.60818,-7.11111 -25.35672,-7.11111 -21.89474,0 -41.82456,17.96491 -41.82456,40.14035 0,22.08187 20.02339,39.85965 41.82456,39.85965 16.74854,0 25.35672,-7.11111 25.35672,-7.11111 l -7.48538,-14.97076 c 0,0 -6.17543,4.77193 -15.15789,4.77193 z"/>
		<path d="m 685.46929,214.09357 c -17.68421,0 -25.45029,-12.35088 -25.45029,-22.73685 0,-10.29239 7.76608,-22.64327 25.45029,-22.64327 8.98246,0 15.1579,4.77193 15.1579,4.77193 l 7.48538,-14.97076 c 0,0 -8.60819,-7.11111 -25.35673,-7.11111 -21.89474,0 -41.82456,17.96491 -41.82456,40.14035 0,22.08187 20.02339,39.85965 41.82456,39.85965 16.74854,0 25.35673,-7.11111 25.35673,-7.11111 l -7.48538,-14.97076 c 0,0 -6.17544,4.77193 -15.1579,4.77193 z"/>
		<path d="m 716.47223,191.35672 c 0,22.54971 16.09357,40.04679 38.92398,40.04679 22.17544,0 38.83041,-17.49708 38.83041,-40.04679 0,-22.5497 -17.40351,-39.95321 -38.83041,-39.95321 -21.23977,0 -38.92398,17.40351 -38.92398,39.95321 z m 18.99416,0 c 0,-11.50877 6.36257,-23.01754 19.92982,-23.01754 13.66082,0 19.83626,11.50877 19.83626,23.01754 0,11.50878 -5.80117,23.01755 -19.83626,23.01755 -14.40936,0 -19.92982,-11.50877 -19.92982,-23.01755 z"/>
		<path d="m 870.80117,230 h 17.59064 l -6.92398,-77.19298 h -18.71345 l -17.12281,44.53801 -17.1228,-44.53801 H 809.79532 L 802.87134,230 h 17.59064 l 3.64913,-45.75439 h 0.46783 l 15.81287,45.28655 h 10.47953 l 15.81287,-45.28655 h 0.46783 z"/>
		<path d="M 900.43862,152.80702 V 230 h 17.59064 v -28.63158 h 10.5731 c 15.06433,0 26.38596,-8.88889 26.38596,-24.79532 0,-16 -11.32163,-23.76608 -26.38596,-23.76608 z m 17.59064,34.52631 V 166.8421 h 4.95906 c 6.92398,0 13.47369,2.33919 13.47369,10.2924 0,7.85965 -6.54971,10.19883 -13.47369,10.19883 z"/>
		<path d="m 1027.0775,152.80702 h -17.5906 v 44.63158 c 0,12.91228 -3.9299,16.65497 -12.53804,16.65497 -8.60819,0 -12.53801,-3.74269 -12.53801,-16.65497 V 152.80702 H 966.8202 v 49.77777 c 0,19.08772 10.47954,28.81872 30.12866,28.81872 19.64914,0 30.12864,-9.731 30.12864,-28.81872 z"/>
		<path d="m 1032.9489,168.24561 h 18.3391 V 230 h 17.5907 v -61.75439 h 18.3392 v -15.43859 h -54.269 z"/>
		<path d="m 1142.7164,152.80702 h -44.1638 V 230 h 44.1638 v -15.4386 h -26.5731 v -15.53216 h 25.4503 v -15.4386 h -25.4503 v -15.34503 h 26.5731 z"/>
		<path d="M 1157.8289,152.80702 V 230 h 17.5907 V 199.49708 L 1198.9985,230 h 22.3626 l -26.5731,-31.90643 c 9.4503,-2.99416 15.8129,-10.76024 15.8129,-22.36258 0,-15.15789 -10.8538,-22.92397 -25.1696,-22.92397 z m 17.5907,34.24561 V 166.8421 h 2.0585 c 6.6432,0 14.5965,0.46784 14.5965,10.10527 0,9.63742 -7.9533,10.10526 -14.5965,10.10526 z"/>
	</g>
	<g/>
	<g aria-label="H. BEAM PIPER">
		<path d="m 421.57292,466.77193 h 18.66667 V 490 h 13.19298 v -57.89474 h -13.19298 v 23.08772 H 421.57292 V 432.10526 H 408.37994 V 490 h 13.19298 z"/>
		<path d="m 474.83388,474.98246 c -4.42105,0 -8,3.57894 -8,8.07017 0,4.42105 3.57895,8 8,8 4.49123,0 8.07018,-3.57895 8.07018,-8 0,-4.49123 -3.57895,-8.07017 -8.07018,-8.07017 z"/>
		<path d="M 520.55647,432.10526 V 490 h 21.96491 c 12,0 18.94737,-6.59649 18.94737,-16.14035 0,-9.33333 -5.12281,-13.33333 -12.35088,-14.59649 4.91228,-2.52632 7.22807,-7.08772 7.22807,-12.42105 0,-11.01755 -7.85965,-14.73685 -17.82456,-14.73685 z m 13.19298,22.66667 V 442.2807 h 1.05263 c 5.75439,0 8.77193,1.75439 8.77193,5.89474 0,4.8421 -3.08772,6.59649 -8.77193,6.59649 z m 0,25.05263 v -13.68421 h 4.14035 c 6.24561,0 9.68421,1.89474 9.68421,7.22807 0,4.5614 -3.4386,6.45614 -9.68421,6.45614 z"/>
		<path d="M 605.41722,432.10526 H 572.29441 V 490 h 33.12281 v -11.57895 h -19.92983 v -11.64912 h 19.08772 v -11.57895 h -19.08772 v -11.50877 h 19.92983 z"/>
		<path d="M 647.81634,432.10526 H 635.60582 L 612.2374,490 h 14.17543 l 4.28071,-11.57895 h 22.03508 L 657.00933,490 h 14.17543 z m 0.42106,34.73685 H 635.18476 L 641.6409,450 h 0.14036 z"/>
		<path d="m 726.23409,490 h 13.19298 l -5.19298,-57.89474 H 720.199 l -12.8421,33.40351 -12.84211,-33.40351 H 680.47971 L 675.28672,490 h 13.19299 l 2.73684,-34.31579 h 0.35088 l 11.85964,33.96491 h 7.85965 l 11.85965,-33.96491 h 0.35088 z"/>
		<path d="M 773.90075,432.10526 V 490 h 13.19298 v -21.47368 h 7.92983 c 11.29824,0 19.78947,-6.66667 19.78947,-18.5965 0,-11.99999 -8.49123,-17.82456 -19.78947,-17.82456 z M 787.09373,458 v -15.36842 h 3.7193 c 5.19298,0 10.10526,1.75439 10.10526,7.7193 0,5.89473 -4.91228,7.64912 -10.10526,7.64912 z"/>
		<path d="M 838.83168,432.10526 H 825.6387 V 490 h 13.19298 z"/>
		<path d="M 852.2944,432.10526 V 490 h 13.19298 v -21.47368 h 7.92982 c 11.29825,0 19.78948,-6.66667 19.78948,-18.5965 0,-11.99999 -8.49123,-17.82456 -19.78948,-17.82456 z M 865.48738,458 v -15.36842 h 3.7193 c 5.19298,0 10.10526,1.75439 10.10526,7.7193 0,5.89473 -4.91228,7.64912 -10.10526,7.64912 z"/>
		<path d="M 937.15515,432.10526 H 904.03234 V 490 h 33.12281 v -11.57895 h -19.92983 v -11.64912 h 19.08772 v -11.57895 h -19.08772 v -11.50877 h 19.92983 z"/>
		<path d="M 949.73956,432.10526 V 490 h 13.19298 V 467.12281 L 980.61675,490 h 16.77193 l -19.92983,-23.92982 c 7.08772,-2.24562 11.85965,-8.07018 11.85965,-16.77193 0,-11.36842 -8.14035,-17.19299 -18.87719,-17.19299 z m 13.19298,25.68421 v -15.15789 h 1.54386 c 4.98245,0 10.94737,0.35088 10.94737,7.57895 0,7.22807 -5.96492,7.57894 -10.94737,7.57894 z"/>
	</g>
	<g/>
</svg>
